germany/municipalities/07232263.svg

<?xml version="1.0" encoding="UTF-8" standalone="no"?>
<!-- Created with Inkscape (http://www.inkscape.org/) -->

<svg
   xmlns:dc="http://purl.org/dc/elements/1.1/"
   xmlns:cc="http://creativecommons.org/ns#"
   xmlns:rdf="http://www.w3.org/1999/02/22-rdf-syntax-ns#"
   xmlns:svg="http://www.w3.org/2000/svg"
   xmlns="http://www.w3.org/2000/svg"
   xmlns:sodipodi="http://sodipodi.sourceforge.net/DTD/sodipodi-0.dtd"
   xmlns:inkscape="http://www.inkscape.org/namespaces/inkscape"
   width="180.28696mm"
   height="209.10649mm"
   viewBox="0 0 180.28696 209.10649"
   version="1.1"
   id="svg1660"
   inkscape:version="0.92.4 (5da689c313, 2019-01-14)"
   sodipodi:docname="DEU Lützkampen COA.svg">
  <defs
     id="defs1654">
    <inkscape:path-effect
       effect="spiro"
       id="path-effect861"
       is_visible="true" />
    <inkscape:path-effect
       effect="spiro"
       id="path-effect838"
       is_visible="true" />
    <inkscape:path-effect
       effect="spiro"
       id="path-effect838-5"
       is_visible="true" />
    <inkscape:path-effect
       effect="spiro"
       id="path-effect861-9"
       is_visible="true" />
    <inkscape:path-effect
       effect="spiro"
       id="path-effect861-5"
       is_visible="true" />
  </defs>
  <sodipodi:namedview
     id="base"
     pagecolor="#ffffff"
     bordercolor="#666666"
     borderopacity="1.0"
     inkscape:pageopacity="0.0"
     inkscape:pageshadow="2"
     inkscape:zoom="0.69338673"
     inkscape:cx="340.69977"
     inkscape:cy="395.16187"
     inkscape:document-units="mm"
     inkscape:current-layer="layer1"
     showgrid="false"
     inkscape:window-width="1366"
     inkscape:window-height="745"
     inkscape:window-x="-8"
     inkscape:window-y="-8"
     inkscape:window-maximized="1"
     fit-margin-top="0"
     fit-margin-left="0"
     fit-margin-right="0"
     fit-margin-bottom="0"
     inkscape:snap-midpoints="true"
     inkscape:snap-smooth-nodes="true"
     inkscape:object-paths="true"
     inkscape:snap-nodes="true" />
  <metadata
     id="metadata1657">
    <rdf:RDF>
      <cc:Work
         rdf:about="">
        <dc:format>image/svg+xml</dc:format>
        <dc:type
           rdf:resource="http://purl.org/dc/dcmitype/StillImage" />
        <dc:title />
      </cc:Work>
    </rdf:RDF>
  </metadata>
  <g
     inkscape:label="Ebene 1"
     inkscape:groupmode="layer"
     id="layer1"
     transform="translate(-1.822865,-10.544372)">
    <path
       style="fill:#0033ff;fill-opacity:1;fill-rule:evenodd;stroke:none;stroke-width:2.82766747;stroke-linecap:round;stroke-linejoin:miter;stroke-miterlimit:4;stroke-dasharray:none;stroke-opacity:1"
       inkscape:connector-curvature="0"
       d="M 180.69111,11.958206 180.28545,129.5615 c -1.97498,49.46891 -40.99669,88.64785 -88.319104,88.67553 C 44.686495,218.17633 5.650194,178.98332 3.647234,129.5615 L 3.241584,11.958206 h 88.722632 z"
       id="path10563-0-6-8-4"
       sodipodi:nodetypes="ccccccc" />
    <path
       style="fill:#ffffff;fill-opacity:1;stroke:#000000;stroke-width:5;stroke-linecap:round;stroke-linejoin:round;stroke-miterlimit:4;stroke-dasharray:none;stroke-opacity:1"
       d="M 5.6640625 93.078125 L 5.9628906 179.49414 L 675.43555 179.49414 L 675.73438 93.078125 L 5.6640625 93.078125 z M 6.2597656 265.91211 L 6.5585938 352.32812 L 674.83984 352.32812 L 675.13867 265.91211 L 6.2597656 265.91211 z M 6.8554688 438.74609 L 6.8945312 449.82812 C 7.9465353 475.78568 11.710965 500.99283 17.876953 525.16406 L 663.57812 525.16406 C 669.72246 500.99544 673.46748 475.78827 674.50391 449.82812 L 674.54297 438.74609 L 6.8554688 438.74609 z M 52.416016 611.58008 C 70.67138 644.11539 93.790568 673.2836 120.70898 697.99805 L 560.91016 697.99805 C 587.80463 673.28562 610.89616 644.11906 629.12109 611.58008 L 52.416016 611.58008 z "
       transform="matrix(0.26458333,0,0,0.26458333,1.822865,10.544372)"
       id="rect2432-6" />
    <path
       style="fill:#ffd700;stroke:#000000;stroke-width:1.3573271;stroke-linecap:round;stroke-linejoin:round;stroke-miterlimit:4;stroke-dasharray:none;stroke-opacity:1;fill-opacity:1"
       d="M 45.259381,11.223036 91.966604,217.46367 138.67331,11.223036 H 91.966604 Z"
       id="path2503"
       inkscape:connector-curvature="0" />
    <path
       style="fill:#0033ff;fill-opacity:1;stroke:#000000;stroke-width:1.41338265;stroke-linecap:round;stroke-linejoin:round;stroke-miterlimit:4;stroke-dasharray:none;stroke-opacity:1"
       d="m 91.96634,24.951513 c -4.44609,8.754628 -6.770183,18.934784 -6.640704,29.087845 0.122496,9.604322 2.434908,19.160165 6.640704,27.441634 4.205797,-8.281469 6.518215,-17.837312 6.640703,-27.441634 0.129485,-10.153061 -2.19461,-20.333217 -6.640703,-29.087845 z"
       id="path836"
       inkscape:connector-curvature="0" />
    <path
       style="fill:none;fill-rule:evenodd;stroke:#000000;stroke-width:2.82766747;stroke-linecap:round;stroke-linejoin:miter;stroke-miterlimit:4;stroke-dasharray:none;stroke-opacity:1"
       inkscape:connector-curvature="0"
       d="M 180.69111,11.958206 180.28545,129.5615 c -1.97498,49.46891 -40.99669,88.64785 -88.319104,88.67553 C 44.686495,218.17633 5.6501939,178.98332 3.6472339,129.5615 L 3.2415839,11.958206 H 91.964216 Z"
       id="path10563-0-6-8"
       sodipodi:nodetypes="ccccccc" />
    <path
       inkscape:connector-curvature="0"
       style="fill:#0033ff;fill-opacity:1;stroke:#000000;stroke-width:1.05651009;stroke-linecap:round;stroke-linejoin:round;stroke-miterlimit:4;stroke-dasharray:none;stroke-opacity:1"
       d="M 84.976899,72.904543 91.966173,188.26463 98.95578,72.904543 h -6.989607 z"
       id="path818" />
    <path
       inkscape:connector-curvature="0"
       style="fill:#000000;stroke-width:0.6283173;stroke-linecap:round;stroke-linejoin:round;stroke-miterlimit:4;stroke-dasharray:none"
       d="m 91.966341,17.79871 a 6.8730092,6.8730092 0 0 0 -6.872965,6.872965 6.8730092,6.8730092 0 0 0 6.872965,6.872965 6.8730092,6.8730092 0 0 0 6.872965,-6.872965 6.8730092,6.8730092 0 0 0 -6.872965,-6.872965 z M 74.294034,70.600137 a 3.4999998,3.4999998 0 0 0 -3.500045,3.500045 3.4999998,3.4999998 0 0 0 3.500045,3.500044 3.4999998,3.4999998 0 0 0 3.158464,-1.999877 c 0.460407,0.115236 1.017003,0.183451 1.619538,0.183451 h 25.788604 c 0.60306,0 1.15994,-0.06855 1.62058,-0.183967 a 3.4999998,3.4999998 0 0 0 3.15743,2.000393 3.4999998,3.4999998 0 0 0 3.50004,-3.500044 3.4999998,3.4999998 0 0 0 -3.50004,-3.500045 3.4999998,3.4999998 0 0 0 -3.15847,1.999879 c -0.46041,-0.115242 -1.01699,-0.182935 -1.61954,-0.182935 H 79.072036 c -0.603046,0 -1.159941,0.06803 -1.620573,0.183451 a 3.4999998,3.4999998 0 0 0 -3.157429,-2.000395 z"
       id="rect902" />
    <path
       style="fill:none;stroke:#000000;stroke-width:1.32291667;stroke-linecap:round;stroke-linejoin:miter;stroke-opacity:1;stroke-miterlimit:4;stroke-dasharray:none"
       d="M 91.966173,188.26463 V 75.7838"
       id="path965"
       inkscape:connector-curvature="0" />
    <path
       style="fill:none;stroke:#000000;stroke-width:1.32291667;stroke-linecap:round;stroke-linejoin:miter;stroke-opacity:1;stroke-miterlimit:4;stroke-dasharray:none"
       d="m 85.854864,44.992997 12.737729,6.66578"
       id="path984"
       inkscape:connector-curvature="0" />
    <path
       style="fill:none;stroke:#000000;stroke-width:1.32291663;stroke-linecap:round;stroke-linejoin:miter;stroke-miterlimit:4;stroke-dasharray:none;stroke-opacity:1"
       d="m 85.345569,51.451598 12.73773,6.66578"
       id="path984-4"
       inkscape:connector-curvature="0" />
  </g>
</svg>

<svg xmlns="http://www.w3.org/2000/svg" width="681.4" height="790.324" viewBox="0 0 180.287 209.106"><path style="fill:#03f;fill-opacity:1;fill-rule:evenodd;stroke:none;stroke-width:2.82766747;stroke-linecap:round;stroke-linejoin:miter;stroke-miterlimit:4;stroke-dasharray:none;stroke-opacity:1" d="m180.691 11.958-.406 117.603c-1.975 49.47-40.996 88.648-88.319 88.676-47.28-.06-86.316-39.254-88.319-88.675L3.242 11.957h88.722z" transform="translate(-1.823 -10.544)"/><path style="fill:#fff;fill-opacity:1;stroke:#000;stroke-width:5;stroke-linecap:round;stroke-linejoin:round;stroke-miterlimit:4;stroke-dasharray:none;stroke-opacity:1" d="m5.664 93.078.299 86.416h669.473l.298-86.416H5.664zm.596 172.834.299 86.416h668.28l.3-86.416H6.259zm.595 172.834.04 11.082c1.052 25.958 4.816 51.165 10.982 75.336h645.701c6.144-24.169 9.89-49.376 10.926-75.336l.039-11.082H6.855zM52.416 611.58c18.255 32.535 41.375 61.704 68.293 86.418H560.91c26.895-24.712 49.986-53.879 68.211-86.418H52.416z" transform="scale(.26458)"/><path style="fill:gold;stroke:#000;stroke-width:1.3573271;stroke-linecap:round;stroke-linejoin:round;stroke-miterlimit:4;stroke-dasharray:none;stroke-opacity:1;fill-opacity:1" d="m45.26 11.223 46.707 206.24 46.706-206.24H91.967z" transform="translate(-1.823 -10.544)"/><path style="fill:#03f;fill-opacity:1;stroke:#000;stroke-width:1.41338265;stroke-linecap:round;stroke-linejoin:round;stroke-miterlimit:4;stroke-dasharray:none;stroke-opacity:1" d="M91.966 24.952c-4.446 8.754-6.77 18.934-6.64 29.087.122 9.605 2.435 19.16 6.64 27.442 4.206-8.281 6.519-17.837 6.641-27.442.13-10.153-2.195-20.333-6.64-29.087z" transform="translate(-1.823 -10.544)"/><path style="fill:none;fill-rule:evenodd;stroke:#000;stroke-width:2.82766747;stroke-linecap:round;stroke-linejoin:miter;stroke-miterlimit:4;stroke-dasharray:none;stroke-opacity:1" d="m180.691 11.958-.406 117.603c-1.975 49.47-40.996 88.648-88.319 88.676-47.28-.06-86.316-39.254-88.319-88.675L3.242 11.957h88.722z" transform="translate(-1.823 -10.544)"/><path style="fill:#03f;fill-opacity:1;stroke:#000;stroke-width:1.05651009;stroke-linecap:round;stroke-linejoin:round;stroke-miterlimit:4;stroke-dasharray:none;stroke-opacity:1" d="m84.977 72.905 6.99 115.36 6.989-115.36h-6.99z" transform="translate(-1.823 -10.544)"/><path style="fill:#000;stroke-width:.6283173;stroke-linecap:round;stroke-linejoin:round;stroke-miterlimit:4;stroke-dasharray:none" d="M91.966 17.799a6.873 6.873 0 0 0-6.873 6.873 6.873 6.873 0 0 0 6.873 6.873 6.873 6.873 0 0 0 6.873-6.873 6.873 6.873 0 0 0-6.873-6.873zM74.294 70.6a3.5 3.5 0 0 0-3.5 3.5 3.5 3.5 0 0 0 3.5 3.5 3.5 3.5 0 0 0 3.158-2c.46.116 1.018.184 1.62.184h25.789c.603 0 1.16-.069 1.62-.184a3.5 3.5 0 0 0 3.158 2 3.5 3.5 0 0 0 3.5-3.5 3.5 3.5 0 0 0-3.5-3.5 3.5 3.5 0 0 0-3.159 2 6.788 6.788 0 0 0-1.62-.183H79.073c-.603 0-1.16.068-1.62.184a3.5 3.5 0 0 0-3.158-2z" transform="translate(-1.823 -10.544)"/><path style="fill:none;stroke:#000;stroke-width:1.32291667;stroke-linecap:round;stroke-linejoin:miter;stroke-opacity:1;stroke-miterlimit:4;stroke-dasharray:none" d="M91.966 188.265V75.784M85.855 44.993l12.738 6.666" transform="translate(-1.823 -10.544)"/><path style="fill:none;stroke:#000;stroke-width:1.32291663;stroke-linecap:round;stroke-linejoin:miter;stroke-miterlimit:4;stroke-dasharray:none;stroke-opacity:1" d="m85.346 51.452 12.737 6.665" transform="translate(-1.823 -10.544)"/></svg>
